X:1
T:Equatoria, 12.9.12.9 D
T:Equatoria, 12.9.12.9 D
T:W. J. Harvey, 1921
T:Public Domain Courtesy of the Cyber Hymnal™
C:W. J. Harvey, 1921
Z:Public Domain
Z:Courtesy of the Cyber Hymnal™
%%score ( 1 2 ) ( 3 4 )
L:1/8
Q:1/4=110
M:3/4
K:G
V:1 treble 
V:2 treble 
V:3 bass 
V:4 bass 
V:1
 DD | [DB]2 [DB]2 [DB]2 | [DB]4 [GB][FA] | [EG]2 [DF]2 [CE]2 | [B,D]4 DD | [B,G]2 [B,G]2 [B,G]2 | %6
 [GB]2 [FA]2 [EG]2 | [FA]6- | [FA]2 z2 DD | [DB]2 [DB]2 [DB]2 | [DB]4 [GB][FA] | %11
 [EG]2 [DF]2 [CE]2 | [B,D]4 [B,D][B,D] | [B,G]2 [B,G]2 [Ec]2 | [DB]2 [B,G]2 [CA]2 | [B,G]6- | %16
 [B,G]4 | [GB][Ac] | [Bd]2 [ce]2 [Bd]2 | [GB]4 [GB][FA] | [EG]2 [CE]2 [EG]2 | [B,D]4 [B,D][B,D] | %22
 [DG]2 [DG]2 [DG]2 | [GB]2 [FA]2 [EG]2 | A6- | [FA]2 z2 [GB][Ac] | [Bd]2 [ce]2 [Bd]2 | %27
 [GB]4 [GB][FA] | [EG]2 [CE]2 [EG]2 | [B,D]4 [B,D][B,D] | [DG]2 [DG]2 [Ec]2 | [DB]2 [B,G]2 [CA]2 | %32
 [B,G]6- | [B,G]2 z2 |] %34
V:2
 DD | x6 | x6 | x6 | x4 DD | x6 | x6 | x6 | x4 DD | x6 | x6 | x6 | x6 | x6 | x6 | x6 | x4 | x2 | %18
 x6 | x6 | x6 | x6 | x6 | x6 | F4 EF | x6 | x6 | x6 | x6 | x6 | x6 | x6 | x6 | x4 |] %34
V:3
 z2 | [G,,G,]2 [D,G,B,]2 [D,G,B,]2 | ([G,,G,]2 [D,G,B,]2) [D,G,B,]2 | C,2 [C,E,G,]2 [C,E,G,]2 | %4
 ([G,,G,]2 [D,G,B,]2) [D,G,B,]2 | [G,,G,]2 [D,G,B,]2 [D,G,B,]2 | A,,2 [^C,E,A,]2 [C,E,A,]2 | %7
 (D,2{A,} [D,C]2 [D,C]2 | D,2 [D,F,D]2) D,D, | [G,,G,]2 [D,G,B,]2 [D,G,B,]2 | %10
 ([G,,G,]2 [D,G,B,]2) [D,G,B,]2 | C,2 [C,E,C]2 [C,E,C]2 | ([G,,G,]2 [D,G,B,]2) [D,G,B,]2 | %13
 [G,,G,]2 [D,G,B,]2 [C,E,G,]2 | D,2 [D,G,]2 [D,F,A,]2 | ([G,,G,]2 [D,G,B,]2 [D,G,B,]2 | %16
 [D,G,B,]4) | [G,D][G,D] | [G,B,]2 [G,C]2 [G,B,]2 | [G,D]4 [B,,B,][B,,B,] | [C,C]2 [C,C]2 [C,C]2 | %21
 [G,B,]4 [D,B,][D,B,] | [G,B,]2 [G,B,]2 [G,B,]2 | [G,D]2 [F,D]2 [E,^C]2 | D6- | %25
 [D,D]2 z2 [G,,G,][G,,G,] | [G,,G,]2 [G,,G,]2 [G,,G,]2 | [G,,D]4 [B,,B,][B,,B,] | %28
 [C,C]2 [C,G,]2 [C,G,]2 | [G,,G,]4 [G,,G,][G,,G,] | [G,,B,]2 [G,,B,]2 [C,C]2 | %31
 [D,G,]2 [D,G,]2 [D,F,]2 | [G,,D,]6- | [G,,D,]2 z2 |] %34
V:4
 x2 | x6 | x6 | x6 | x6 | x6 | x6 | x6 | x6 | x6 | x6 | x6 | x6 | x6 | x6 | x6 | x4 | x2 | x6 | %19
 x6 | x6 | x6 | x6 | x6 | D,4 A,,A,, | x6 | x6 | x6 | x6 | x6 | x6 | x6 | x6 | x4 |] %34

